images/global/icons/alert/error.svg

<svg id="icon_x2F_Alert_x2F_error-Layer_1" xmlns="http://www.w3.org/2000/svg" viewBox="0 0 48 48" enable-background="new 0 0 48 48"><title>icon/Alert/error</title><g id="icon_x2F_Alert_x2F_error-Symbols"><g id="icon_x2F_Alert_x2F_error"><g id="icon_x2F_Alert_x2F_error-Icon" transform="translate(12 12)"><g id="icon_x2F_Alert_x2F_error-Mask"><path id="icon_x2F_Alert_x2F_error-path-1_1_" d="M23.3 6.3L17.6.7c-.4-.4-1-.7-1.6-.7H7.9c-.5 0-1.1.2-1.5.7L.9 6.1C.3 6.7 0 7.4 0 8.2V16c0 .6.2 1.2.7 1.7l5.6 5.6c.5.4 1.1.7 1.8.7h7.8c.7 0 1.3-.3 1.8-.8l5.4-5.4c.6-.6.9-1.3.9-2.2V8c0-.7-.3-1.3-.7-1.7zM11.4 6c0-.4.3-.7.7-.7.4 0 .7.3.7.7v9.2c0 .4-.3.7-.7.7-.4 0-.7-.3-.7-.7V6zm.6 12.8c-.5 0-.9-.4-.9-.9s.4-.9.9-.9.9.4.9.9-.4.9-.9.9z" fill="#384048"/></g><defs><filter id="icon_x2F_Alert_x2F_error-Adobe_OpacityMaskFilter" filterUnits="userSpaceOnUse" x="-12" y="-12" width="48" height="48"><feColorMatrix values="1 0 0 0 0 0 1 0 0 0 0 0 1 0 0 0 0 0 1 0"/></filter></defs><mask maskUnits="userSpaceOnUse" x="-12" y="-12" width="48" height="48" id="icon_x2F_Alert_x2F_error-mask-2"><g filter="url(#icon_x2F_Alert_x2F_error-Adobe_OpacityMaskFilter)"><path id="icon_x2F_Alert_x2F_error-path-1" d="M23.3 6.3L17.6.7c-.4-.4-1-.7-1.6-.7H7.9c-.5 0-1.1.2-1.5.7L.9 6.1C.3 6.7 0 7.4 0 8.2V16c0 .6.2 1.2.7 1.7l5.6 5.6c.5.4 1.1.7 1.8.7h7.8c.7 0 1.3-.3 1.8-.8l5.4-5.4c.6-.6.9-1.3.9-2.2V8c0-.7-.3-1.3-.7-1.7zM11.4 6c0-.4.3-.7.7-.7.4 0 .7.3.7.7v9.2c0 .4-.3.7-.7.7-.4 0-.7-.3-.7-.7V6zm.6 12.8c-.5 0-.9-.4-.9-.9s.4-.9.9-.9.9.4.9.9-.4.9-.9.9z" fill="#fff"/></g></mask><g id="icon_x2F_Alert_x2F_error-Color_x2F_Messaging_x2F_Error" mask="url(#icon_x2F_Alert_x2F_error-mask-2)"><path fill="#9d2028" d="M0 0h48v48H0z" transform="translate(-12 -12)" id="icon_x2F_Alert_x2F_error-Swatch"/></g></g></g></g></svg>

<?xml version="1.0" encoding="utf-8"?>
<!-- Generator: Adobe Illustrator 21.0.2, SVG Export Plug-In . SVG Version: 6.00 Build 0)  -->
<svg version="1.1" id="icon_x2F_Alert_x2F_error-Layer_1" xmlns="http://www.w3.org/2000/svg" xmlns:xlink="http://www.w3.org/1999/xlink" x="0px" y="0px"
	 viewBox="0 0 48 48" style="enable-background:new 0 0 48 48;" xml:space="preserve">
<title>icon/Alert/error</title>
<desc>Created with Sketch.</desc>
<g id="icon_x2F_Alert_x2F_error-Symbols">
	<g id="icon_x2F_Alert_x2F_error">
		<g id="icon_x2F_Alert_x2F_error-Icon" transform="translate(12.000000, 12.000000)">
			<g id="icon_x2F_Alert_x2F_error-Mask">
				<path id="icon_x2F_Alert_x2F_error-path-1_1_" style="fill:#384048;" d="M23.3,6.3l-5.7-5.6C17.2,0.3,16.6,0,16,0L7.9,0C7.4,0,6.8,0.2,6.4,0.7L0.9,6.1
					C0.3,6.7,0,7.4,0,8.2v7.8c0,0.6,0.2,1.2,0.7,1.7l5.6,5.6C6.8,23.7,7.4,24,8.1,24h7.8c0.7,0,1.3-0.3,1.8-0.8l5.4-5.4
					c0.6-0.6,0.9-1.3,0.9-2.2V8C24,7.3,23.7,6.7,23.3,6.3L23.3,6.3z M11.4,6c0-0.4,0.3-0.7,0.7-0.7c0.4,0,0.7,0.3,0.7,0.7v9.2
					c0,0.4-0.3,0.7-0.7,0.7c-0.4,0-0.7-0.3-0.7-0.7V6L11.4,6z M12,18.8c-0.5,0-0.9-0.4-0.9-0.9c0-0.5,0.4-0.9,0.9-0.9
					c0.5,0,0.9,0.4,0.9,0.9C12.9,18.4,12.5,18.8,12,18.8L12,18.8z"/>
			</g>
			<defs>
				<filter id="icon_x2F_Alert_x2F_error-Adobe_OpacityMaskFilter" filterUnits="userSpaceOnUse" x="-12" y="-12" width="48" height="48">
					<feColorMatrix  type="matrix" values="1 0 0 0 0  0 1 0 0 0  0 0 1 0 0  0 0 0 1 0"/>
				</filter>
			</defs>
			<mask maskUnits="userSpaceOnUse" x="-12" y="-12" width="48" height="48" id="icon_x2F_Alert_x2F_error-mask-2">
				<g style="filter:url(#icon_x2F_Alert_x2F_error-Adobe_OpacityMaskFilter);">
					<path id="icon_x2F_Alert_x2F_error-path-1" style="fill:#FFFFFF;" d="M23.3,6.3l-5.7-5.6C17.2,0.3,16.6,0,16,0L7.9,0C7.4,0,6.8,0.2,6.4,0.7L0.9,6.1
						C0.3,6.7,0,7.4,0,8.2v7.8c0,0.6,0.2,1.2,0.7,1.7l5.6,5.6C6.8,23.7,7.4,24,8.1,24h7.8c0.7,0,1.3-0.3,1.8-0.8l5.4-5.4
						c0.6-0.6,0.9-1.3,0.9-2.2V8C24,7.3,23.7,6.7,23.3,6.3L23.3,6.3z M11.4,6c0-0.4,0.3-0.7,0.7-0.7c0.4,0,0.7,0.3,0.7,0.7v9.2
						c0,0.4-0.3,0.7-0.7,0.7c-0.4,0-0.7-0.3-0.7-0.7V6L11.4,6z M12,18.8c-0.5,0-0.9-0.4-0.9-0.9c0-0.5,0.4-0.9,0.9-0.9
						c0.5,0,0.9,0.4,0.9,0.9C12.9,18.4,12.5,18.8,12,18.8L12,18.8z"/>
				</g>
			</mask>
			<g id="icon_x2F_Alert_x2F_error-Color_x2F_Messaging_x2F_Error" style="mask:url(#icon_x2F_Alert_x2F_error-mask-2);">
				<g id="icon_x2F_Alert_x2F_error-Swatch" transform="translate(-12.000000, -12.000000)">
					<rect style="fill:#9D2028;" width="48" height="48"/>
				</g>
			</g>
		</g>
	</g>
</g>
</svg>
